modules/hawcons-stroke/icons/icon-25-key.svg

<?xml version="1.0" encoding="UTF-8" standalone="no"?>
<svg width="32px" height="32px" viewBox="0 0 32 32" version="1.1" xmlns="http://www.w3.org/2000/svg" xmlns:xlink="http://www.w3.org/1999/xlink" xmlns:sketch="http://www.bohemiancoding.com/sketch/ns">
    <!-- Generator: Sketch 3.0.3 (7891) - http://www.bohemiancoding.com/sketch -->
    <title>icon 25 key</title>
    <desc>Created with Sketch.</desc>
    <defs></defs>
    <g id="Page-1" stroke="none" stroke-width="1" fill="none" fill-rule="evenodd" sketch:type="MSPage">
        <g id="icon-25-key" sketch:type="MSArtboardGroup" fill="#929292">
            <path d="M17.0336552,13.3678662 C16.3812449,12.407675 16,11.2483598 16,10 C16,6.68629134 18.6862913,4 22,4 C25.3137087,4 28,6.68629134 28,10 C28,13.3137087 25.3137087,16 22,16 C20.7464539,16 19.5826937,15.6155808 18.6201766,14.9581994 L14.5381635,19.0381635 L16.5,21 L15,22.5 L13.037787,20.537787 L10.0370339,23.5370339 L12.5,26 L11,27.5 L8.53665732,25.0366573 L5.8870599,27.6849248 C5.45252802,28.1192385 4.76199383,28.1128958 4.33377865,27.6816824 L4.31539123,27.6631662 C3.88827138,27.2330558 3.88810647,26.5337787 4.31746937,26.1037506 L17.0336552,13.3678662 L17.0336552,13.3678662 L17.0336552,13.3678662 Z M13,22 L11.5,23.5 L11.5,23.5 L14,26 L11,29 L8.5,26.5 L6.62453677,28.3754632 C5.78317976,29.2168202 4.42053288,29.2205817 3.58239782,28.3824466 L3.61755335,28.4176022 C2.78072202,27.5807709 2.78254488,26.2174551 3.62453677,25.3754632 L15.7819315,13.2180685 C15.2822882,12.2545997 15,11.1602658 15,10 C15,6.13400656 18.1340066,3 22,3 C25.8659934,3 29,6.13400656 29,10 C29,13.8659934 25.8659934,17 22,17 C20.8397342,17 19.7454003,16.7177118 18.7819315,16.2180685 L18.7819315,16.2180685 L16,19 L18,21 L15,24 L13,22 L13,22 L13,22 Z M22,14 C24.2091391,14 26,12.2091391 26,10 C26,7.79086089 24.2091391,6 22,6 C19.7908609,6 18,7.79086089 18,10 C18,12.2091391 19.7908609,14 22,14 L22,14 L22,14 Z M22,13 C23.6568543,13 25,11.6568543 25,10 C25,8.34314567 23.6568543,7 22,7 C20.3431457,7 19,8.34314567 19,10 C19,11.6568543 20.3431457,13 22,13 L22,13 L22,13 Z" id="key" sketch:type="MSShapeGroup"></path>
        </g>
    </g>
</svg>

<svg width="32" height="32" xmlns="http://www.w3.org/2000/svg"><path d="M17.034 13.368a6 6 0 1 1 1.587 1.59l-4.083 4.08L16.5 21 15 22.5l-1.962-1.962-3.001 2.999L12.5 26 11 27.5l-2.463-2.463-2.65 2.648a1.091 1.091 0 0 1-1.553-.003l-.019-.019a1.107 1.107 0 0 1 .002-1.56l12.717-12.735zM13 22l-1.5 1.5L14 26l-3 3-2.5-2.5-1.875 1.875a2.152 2.152 0 0 1-3.043.007l.036.036a2.152 2.152 0 0 1 .007-3.043l12.157-12.157a7 7 0 1 1 3 3L16 19l2 2-3 3-2-2zm9-8a4 4 0 1 0 0-8 4 4 0 0 0 0 8zm0-1a3 3 0 1 0 0-6 3 3 0 0 0 0 6z" fill="#929292" fill-rule="evenodd"/></svg>
